src/images/logo.svg

<svg width="158" height="59" viewBox="0 0 158 59" fill="none" xmlns="http://www.w3.org/2000/svg">
<path d="M58 11H13C11.3431 11 10 12.3431 10 14V42.435C10 44.0918 11.3431 45.435 13 45.435H20.1167C20.3318 45.435 20.5411 45.5043 20.7137 45.6327L28.7644 51.6233C30.0838 52.6051 31.9583 51.6634 31.9583 50.0188V28.4416C31.9583 27.3817 31.3991 26.4005 30.4871 25.8604L24.4746 22.2994C23.5993 21.7811 23.9669 20.439 24.9842 20.439H34.625C36.2819 20.439 37.625 21.7822 37.625 23.439V42.435C37.625 44.0918 38.9681 45.435 40.625 45.435H58C59.6569 45.435 61 44.0918 61 42.435V14C61 12.3431 59.6569 11 58 11Z" fill="#6A5AED"/>
<path d="M84.504 21V9.8H85.968L90.64 17.36H90.064L94.576 9.8H96V21H94.528L94.544 11.848L94.84 11.944L90.84 18.48H89.68L85.632 11.944L85.864 11.848L85.88 21H84.504ZM102.796 21.24C101.964 21.24 101.23 21.0667 100.596 20.72C99.961 20.3733 99.465 19.8907 99.1076 19.272C98.7503 18.648 98.5716 17.9227 98.5716 17.096C98.5716 16.4987 98.673 15.944 98.8756 15.432C99.0836 14.92 99.3716 14.4773 99.7396 14.104C100.113 13.7307 100.548 13.44 101.044 13.232C101.545 13.024 102.089 12.92 102.676 12.92C103.31 12.92 103.876 13.032 104.372 13.256C104.873 13.48 105.286 13.7947 105.612 14.2C105.942 14.6 106.18 15.072 106.324 15.616C106.468 16.1547 106.497 16.7413 106.412 17.376H100.028C100.012 17.8987 100.118 18.3573 100.348 18.752C100.577 19.1413 100.908 19.4453 101.34 19.664C101.777 19.8827 102.294 19.992 102.892 19.992C103.329 19.992 103.756 19.9227 104.172 19.784C104.588 19.6453 104.956 19.44 105.276 19.168L105.9 20.264C105.644 20.472 105.34 20.6507 104.988 20.8C104.641 20.944 104.278 21.0533 103.9 21.128C103.521 21.2027 103.153 21.24 102.796 21.24ZM100.108 16.232H104.94C104.918 15.5707 104.713 15.056 104.324 14.688C103.934 14.3147 103.377 14.128 102.652 14.128C101.948 14.128 101.366 14.3147 100.908 14.688C100.449 15.056 100.182 15.5707 100.108 16.232ZM112.401 21.24C111.569 21.24 110.835 21.0667 110.201 20.72C109.566 20.3733 109.07 19.8907 108.713 19.272C108.355 18.648 108.177 17.9227 108.177 17.096C108.177 16.4987 108.278 15.944 108.481 15.432C108.689 14.92 108.977 14.4773 109.345 14.104C109.718 13.7307 110.153 13.44 110.649 13.232C111.15 13.024 111.694 12.92 112.281 12.92C112.915 12.92 113.481 13.032 113.977 13.256C114.478 13.48 114.891 13.7947 115.217 14.2C115.547 14.6 115.785 15.072 115.929 15.616C116.073 16.1547 116.102 16.7413 116.017 17.376H109.633C109.617 17.8987 109.723 18.3573 109.953 18.752C110.182 19.1413 110.513 19.4453 110.945 19.664C111.382 19.8827 111.899 19.992 112.497 19.992C112.934 19.992 113.361 19.9227 113.777 19.784C114.193 19.6453 114.561 19.44 114.881 19.168L115.505 20.264C115.249 20.472 114.945 20.6507 114.593 20.8C114.246 20.944 113.883 21.0533 113.505 21.128C113.126 21.2027 112.758 21.24 112.401 21.24ZM109.713 16.232H114.545C114.523 15.5707 114.318 15.056 113.929 14.688C113.539 14.3147 112.982 14.128 112.257 14.128C111.553 14.128 110.971 14.3147 110.513 14.688C110.054 15.056 109.787 15.5707 109.713 16.232ZM121.561 21.24C120.831 21.24 120.241 21.0267 119.793 20.6C119.351 20.1733 119.129 19.5147 119.129 18.624V10.856H120.601V13.16H122.897V14.408H120.601V18.256C120.601 18.8533 120.708 19.2747 120.921 19.52C121.14 19.76 121.457 19.88 121.873 19.88C122.06 19.88 122.236 19.8587 122.401 19.816C122.572 19.7733 122.721 19.7173 122.849 19.648L123.153 20.856C122.935 20.9733 122.687 21.0667 122.409 21.136C122.132 21.2053 121.849 21.24 121.561 21.24ZM117.337 14.408V13.16H119.353V14.408H117.337ZM125.567 21V13.16H127.039V21H125.567ZM126.303 11.68C126.026 11.68 125.786 11.5867 125.583 11.4C125.38 11.2133 125.279 10.976 125.279 10.688C125.279 10.4 125.38 10.1653 125.583 9.984C125.786 9.79733 126.026 9.704 126.303 9.704C126.586 9.704 126.826 9.79733 127.023 9.984C127.226 10.1653 127.327 10.4 127.327 10.688C127.327 10.976 127.226 11.2133 127.023 11.4C126.826 11.5867 126.586 11.68 126.303 11.68ZM130.063 21V13.16H131.535V14.216C131.871 13.7573 132.263 13.4267 132.711 13.224C133.159 13.0213 133.617 12.92 134.087 12.92C134.796 12.92 135.383 13.064 135.847 13.352C136.316 13.6347 136.665 13.9973 136.895 14.44C137.129 14.8827 137.247 15.336 137.247 15.8V21H135.775V16.256C135.775 15.664 135.591 15.1893 135.223 14.832C134.855 14.4693 134.353 14.288 133.719 14.288C133.303 14.288 132.929 14.3813 132.599 14.568C132.273 14.7493 132.015 15.008 131.823 15.344C131.631 15.68 131.535 16.0667 131.535 16.504V21H130.063ZM143.583 24.6C143.077 24.6 142.567 24.5493 142.055 24.448C141.543 24.3467 141.055 24.1813 140.591 23.952L140.983 22.696C141.405 22.8933 141.831 23.04 142.263 23.136C142.695 23.232 143.119 23.28 143.535 23.28C144.479 23.28 145.199 23.048 145.695 22.584C146.197 22.12 146.447 21.5093 146.447 20.752V19.048L146.655 19.36C146.367 19.8773 145.965 20.3013 145.447 20.632C144.93 20.9573 144.279 21.12 143.495 21.12C142.695 21.12 141.994 20.9387 141.391 20.576C140.789 20.208 140.319 19.7147 139.983 19.096C139.647 18.4773 139.479 17.784 139.479 17.016C139.479 16.4453 139.575 15.912 139.767 15.416C139.959 14.92 140.231 14.4853 140.583 14.112C140.941 13.7333 141.365 13.44 141.855 13.232C142.346 13.024 142.893 12.92 143.495 12.92C144.279 12.92 144.93 13.0827 145.447 13.408C145.965 13.7333 146.367 14.1547 146.655 14.672L146.447 14.992V13.152H147.831V20.384C147.831 21.7067 147.474 22.7387 146.759 23.48C146.05 24.2267 144.991 24.6 143.583 24.6ZM143.671 19.808C144.194 19.808 144.658 19.6933 145.063 19.464C145.474 19.2347 145.794 18.912 146.023 18.496C146.253 18.08 146.367 17.5867 146.367 17.016C146.367 16.4507 146.253 15.96 146.023 15.544C145.794 15.1227 145.474 14.7973 145.063 14.568C144.658 14.3387 144.194 14.224 143.671 14.224C143.143 14.224 142.677 14.3387 142.271 14.568C141.866 14.7973 141.546 15.1227 141.311 15.544C141.082 15.96 140.967 16.4507 140.967 17.016C140.967 17.5867 141.082 18.08 141.311 18.496C141.546 18.912 141.866 19.2347 142.271 19.464C142.677 19.6933 143.143 19.808 143.671 19.808Z" fill="#6A5AED"/>
<path d="M84.71 47V33H90.26C91.2733 33 92.1567 33.17 92.91 33.51C93.67 33.8433 94.2533 34.3267 94.66 34.96C95.0733 35.5933 95.28 36.35 95.28 37.23C95.28 37.9233 95.1433 38.5333 94.87 39.06C94.5967 39.58 94.22 40.0133 93.74 40.36C93.2667 40.7067 92.72 40.9567 92.1 41.11L96.02 47H92.49L89.12 41.68H87.67V47H84.71ZM87.67 39.29H89.87C90.63 39.29 91.2233 39.1367 91.65 38.83C92.0833 38.5167 92.3 38.0433 92.3 37.41C92.3 36.7567 92.1 36.2667 91.7 35.94C91.3067 35.6133 90.73 35.45 89.97 35.45H87.67V39.29ZM105.668 47.3C104.602 47.3 103.615 47.1167 102.708 46.75C101.802 46.3767 101.015 45.86 100.348 45.2C99.6818 44.54 99.1618 43.7667 98.7884 42.88C98.4218 41.9933 98.2384 41.0333 98.2384 40C98.2384 38.96 98.4218 37.9967 98.7884 37.11C99.1618 36.2233 99.6818 35.45 100.348 34.79C101.015 34.13 101.802 33.6167 102.708 33.25C103.615 32.8833 104.602 32.7 105.668 32.7C106.735 32.7 107.718 32.8867 108.618 33.26C109.525 33.6333 110.312 34.1533 110.978 34.82C111.652 35.4867 112.175 36.2633 112.548 37.15C112.922 38.03 113.108 38.98 113.108 40C113.108 41.0333 112.922 41.9933 112.548 42.88C112.175 43.7667 111.652 44.54 110.978 45.2C110.312 45.86 109.525 46.3767 108.618 46.75C107.718 47.1167 106.735 47.3 105.668 47.3ZM105.668 44.52C106.288 44.52 106.862 44.4133 107.388 44.2C107.915 43.9867 108.375 43.6833 108.768 43.29C109.162 42.89 109.465 42.4133 109.678 41.86C109.898 41.3067 110.008 40.6867 110.008 40C110.008 39.0867 109.818 38.2933 109.438 37.62C109.058 36.94 108.542 36.4133 107.888 36.04C107.235 35.6667 106.495 35.48 105.668 35.48C105.055 35.48 104.482 35.5867 103.948 35.8C103.422 36.0133 102.962 36.3167 102.568 36.71C102.182 37.1033 101.878 37.58 101.658 38.14C101.445 38.6933 101.338 39.3133 101.338 40C101.338 40.9133 101.528 41.71 101.908 42.39C102.288 43.0633 102.805 43.5867 103.458 43.96C104.112 44.3333 104.848 44.52 105.668 44.52ZM123.407 47.3C122.34 47.3 121.353 47.1167 120.447 46.75C119.54 46.3767 118.753 45.86 118.087 45.2C117.42 44.54 116.9 43.7667 116.527 42.88C116.16 41.9933 115.977 41.0333 115.977 40C115.977 38.96 116.16 37.9967 116.527 37.11C116.9 36.2233 117.42 35.45 118.087 34.79C118.753 34.13 119.54 33.6167 120.447 33.25C121.353 32.8833 122.34 32.7 123.407 32.7C124.473 32.7 125.457 32.8867 126.357 33.26C127.263 33.6333 128.05 34.1533 128.717 34.82C129.39 35.4867 129.913 36.2633 130.287 37.15C130.66 38.03 130.847 38.98 130.847 40C130.847 41.0333 130.66 41.9933 130.287 42.88C129.913 43.7667 129.39 44.54 128.717 45.2C128.05 45.86 127.263 46.3767 126.357 46.75C125.457 47.1167 124.473 47.3 123.407 47.3ZM123.407 44.52C124.027 44.52 124.6 44.4133 125.127 44.2C125.653 43.9867 126.113 43.6833 126.507 43.29C126.9 42.89 127.203 42.4133 127.417 41.86C127.637 41.3067 127.747 40.6867 127.747 40C127.747 39.0867 127.557 38.2933 127.177 37.62C126.797 36.94 126.28 36.4133 125.627 36.04C124.973 35.6667 124.233 35.48 123.407 35.48C122.793 35.48 122.22 35.5867 121.687 35.8C121.16 36.0133 120.7 36.3167 120.307 36.71C119.92 37.1033 119.617 37.58 119.397 38.14C119.183 38.6933 119.077 39.3133 119.077 40C119.077 40.9133 119.267 41.71 119.647 42.39C120.027 43.0633 120.543 43.5867 121.197 43.96C121.85 44.3333 122.587 44.52 123.407 44.52ZM134.39 47V33H137.24L142.69 41.98L141.52 42L146.72 33H149.55V47H146.68L146.73 36.82L147.26 37.01L142.98 44.24H140.96L136.55 37.01L137.05 36.82L137.1 47H134.39Z" fill="#6A5AED"/>
</svg>

<svg xmlns="http://www.w3.org/2000/svg" width="158" height="59" fill="none"><path fill="#6A5AED" d="M58 11H13a3 3 0 0 0-3 3v28.435a3 3 0 0 0 3 3h7.117a1 1 0 0 1 .597.198l8.05 5.99c1.32.982 3.194.04 3.194-1.604V28.442a3 3 0 0 0-1.47-2.582l-6.013-3.56c-.876-.519-.508-1.861.51-1.861h9.64a3 3 0 0 1 3 3v18.996a3 3 0 0 0 3 3H58a3 3 0 0 0 3-3V14a3 3 0 0 0-3-3ZM84.504 21V9.8h1.464l4.672 7.56h-.576l4.512-7.56H96V21h-1.472l.016-9.152.296.096-4 6.536h-1.16l-4.048-6.536.232-.096L85.88 21h-1.376Zm18.292.24c-.832 0-1.566-.173-2.2-.52a3.772 3.772 0 0 1-1.488-1.448c-.358-.624-.536-1.35-.536-2.176 0-.597.101-1.152.304-1.664.208-.512.496-.955.864-1.328a4.03 4.03 0 0 1 1.304-.872 4.214 4.214 0 0 1 1.632-.312c.634 0 1.2.112 1.696.336.501.224.914.539 1.24.944.33.4.568.872.712 1.416.144.539.173 1.125.088 1.76h-6.384c-.016.523.09.981.32 1.376.229.39.56.693.992.912.437.219.954.328 1.552.328.437 0 .864-.07 1.28-.208a3.295 3.295 0 0 0 1.104-.616l.624 1.096c-.256.208-.56.387-.912.536a5.73 5.73 0 0 1-1.088.328 5.704 5.704 0 0 1-1.104.112Zm-2.688-5.008h4.832c-.022-.661-.227-1.176-.616-1.544-.39-.373-.947-.56-1.672-.56-.704 0-1.286.187-1.744.56-.459.368-.726.883-.8 1.544Zm12.293 5.008c-.832 0-1.566-.173-2.2-.52a3.769 3.769 0 0 1-1.488-1.448c-.358-.624-.536-1.35-.536-2.176 0-.597.101-1.152.304-1.664.208-.512.496-.955.864-1.328a4.025 4.025 0 0 1 1.304-.872 4.214 4.214 0 0 1 1.632-.312c.634 0 1.2.112 1.696.336.501.224.914.539 1.24.944.33.4.568.872.712 1.416.144.539.173 1.125.088 1.76h-6.384c-.016.523.09.981.32 1.376.229.39.56.693.992.912.437.219.954.328 1.552.328.437 0 .864-.07 1.28-.208a3.295 3.295 0 0 0 1.104-.616l.624 1.096c-.256.208-.56.387-.912.536a5.73 5.73 0 0 1-1.088.328 5.704 5.704 0 0 1-1.104.112Zm-2.688-5.008h4.832c-.022-.661-.227-1.176-.616-1.544-.39-.373-.947-.56-1.672-.56-.704 0-1.286.187-1.744.56-.459.368-.726.883-.8 1.544Zm11.848 5.008c-.73 0-1.32-.213-1.768-.64-.442-.427-.664-1.085-.664-1.976v-7.768h1.472v2.304h2.296v1.248h-2.296v3.848c0 .597.107 1.019.32 1.264.219.24.536.36.952.36.187 0 .363-.021.528-.064a1.91 1.91 0 0 0 .448-.168l.304 1.208a3.483 3.483 0 0 1-1.592.384Zm-4.224-6.832V13.16h2.016v1.248h-2.016Zm8.23 6.592v-7.84h1.472V21h-1.472Zm.736-9.32c-.277 0-.517-.093-.72-.28a.924.924 0 0 1-.304-.712.9.9 0 0 1 .304-.704c.203-.187.443-.28.72-.28.283 0 .523.093.72.28a.9.9 0 0 1 .304.704.924.924 0 0 1-.304.712c-.197.187-.437.28-.72.28Zm3.76 9.32v-7.84h1.472v1.056c.336-.459.728-.79 1.176-.992a3.304 3.304 0 0 1 1.376-.304c.709 0 1.296.144 1.76.432.469.283.818.645 1.048 1.088.234.443.352.896.352 1.36V21h-1.472v-4.744c0-.592-.184-1.067-.552-1.424-.368-.363-.87-.544-1.504-.544-.416 0-.79.093-1.12.28-.326.181-.584.44-.776.776a2.297 2.297 0 0 0-.288 1.16V21h-1.472Zm13.52 3.6c-.506 0-1.016-.05-1.528-.152-.512-.101-1-.267-1.464-.496l.392-1.256c.422.197.848.344 1.28.44.432.096.856.144 1.272.144.944 0 1.664-.232 2.16-.696.502-.464.752-1.075.752-1.832v-1.704l.208.312c-.288.517-.69.941-1.208 1.272-.517.325-1.168.488-1.952.488-.8 0-1.501-.181-2.104-.544a3.874 3.874 0 0 1-1.408-1.48c-.336-.619-.504-1.312-.504-2.08 0-.57.096-1.104.288-1.6.192-.496.464-.93.816-1.304a3.741 3.741 0 0 1 1.272-.88 4.166 4.166 0 0 1 1.64-.312c.784 0 1.435.163 1.952.488.518.325.92.747 1.208 1.264l-.208.32v-1.84h1.384v7.232c0 1.323-.357 2.355-1.072 3.096-.709.747-1.768 1.12-3.176 1.12Zm.088-4.792c.523 0 .987-.115 1.392-.344.411-.23.731-.552.96-.968.23-.416.344-.91.344-1.48 0-.565-.114-1.056-.344-1.472a2.412 2.412 0 0 0-.96-.976 2.776 2.776 0 0 0-1.392-.344c-.528 0-.994.115-1.4.344a2.49 2.49 0 0 0-.96.976c-.229.416-.344.907-.344 1.472 0 .57.115 1.064.344 1.48.235.416.555.739.96.968.406.23.872.344 1.4.344ZM84.71 47V33h5.55c1.013 0 1.897.17 2.65.51.76.333 1.343.817 1.75 1.45.413.633.62 1.39.62 2.27 0 .693-.137 1.303-.41 1.83-.273.52-.65.953-1.13 1.3a4.618 4.618 0 0 1-1.64.75L96.02 47h-3.53l-3.37-5.32h-1.45V47h-2.96Zm2.96-7.71h2.2c.76 0 1.353-.153 1.78-.46.433-.313.65-.787.65-1.42 0-.653-.2-1.143-.6-1.47-.393-.327-.97-.49-1.73-.49h-2.3v3.84Zm17.998 8.01c-1.066 0-2.053-.183-2.96-.55a7.234 7.234 0 0 1-2.36-1.55 7.12 7.12 0 0 1-1.56-2.32 7.463 7.463 0 0 1-.55-2.88c0-1.04.184-2.003.55-2.89a7.12 7.12 0 0 1 1.56-2.32 7.105 7.105 0 0 1 2.36-1.54c.907-.367 1.894-.55 2.96-.55 1.067 0 2.05.187 2.95.56a7.134 7.134 0 0 1 2.36 1.56 7.21 7.21 0 0 1 2.13 5.18 7.334 7.334 0 0 1-.56 2.88 7.021 7.021 0 0 1-1.57 2.32 7.213 7.213 0 0 1-2.36 1.55c-.9.367-1.883.55-2.95.55Zm0-2.78c.62 0 1.194-.107 1.72-.32a4.107 4.107 0 0 0 1.38-.91c.394-.4.697-.877.91-1.43.22-.553.33-1.173.33-1.86 0-.913-.19-1.707-.57-2.38a4.056 4.056 0 0 0-1.55-1.58c-.653-.373-1.393-.56-2.22-.56-.613 0-1.186.107-1.72.32a4.127 4.127 0 0 0-1.38.91c-.386.393-.69.87-.91 1.43-.213.553-.32 1.173-.32 1.86 0 .913.19 1.71.57 2.39.38.673.897 1.197 1.55 1.57.654.373 1.39.56 2.21.56Zm17.739 2.78c-1.067 0-2.054-.183-2.96-.55a7.102 7.102 0 0 1-3.92-3.87 7.456 7.456 0 0 1-.55-2.88c0-1.04.183-2.003.55-2.89a7.102 7.102 0 0 1 1.56-2.32 7.085 7.085 0 0 1 2.36-1.54c.906-.367 1.893-.55 2.96-.55 1.066 0 2.05.187 2.95.56a7.155 7.155 0 0 1 2.36 1.56 7.164 7.164 0 0 1 1.57 2.33c.373.88.56 1.83.56 2.85a7.352 7.352 0 0 1-.56 2.88 7.051 7.051 0 0 1-1.57 2.32 7.234 7.234 0 0 1-2.36 1.55c-.9.367-1.884.55-2.95.55Zm0-2.78a4.54 4.54 0 0 0 1.72-.32 4.127 4.127 0 0 0 1.38-.91c.393-.4.696-.877.91-1.43.22-.553.33-1.173.33-1.86 0-.913-.19-1.707-.57-2.38a4.063 4.063 0 0 0-1.55-1.58c-.654-.373-1.394-.56-2.22-.56-.614 0-1.187.107-1.72.32a4.107 4.107 0 0 0-1.38.91c-.387.393-.69.87-.91 1.43-.214.553-.32 1.173-.32 1.86 0 .913.19 1.71.57 2.39.38.673.896 1.197 1.55 1.57.653.373 1.39.56 2.21.56ZM134.39 47V33h2.85l5.45 8.98-1.17.02 5.2-9h2.83v14h-2.87l.05-10.18.53.19-4.28 7.23h-2.02l-4.41-7.23.5-.19.05 10.18h-2.71Z"/></svg>
